images/placeholder-1.svg

<svg width="35" height="35" viewBox="0 0 35 35" fill="none" xmlns="http://www.w3.org/2000/svg">
<path d="M17.5 0C10.7152 0 5.19531 5.51988 5.19531 12.3047C5.19531 14.5971 5.8303 16.8342 7.03206 18.775L16.7996 34.5153C16.9867 34.8168 17.3163 35 17.6708 35C17.6736 35 17.6762 35 17.679 35C18.0366 34.9972 18.3669 34.8083 18.5505 34.5015L28.0691 18.6088C29.2046 16.7089 29.8047 14.529 29.8047 12.3047C29.8047 5.51988 24.2848 0 17.5 0ZM26.3092 17.5559L17.6553 32.0049L8.77509 17.6946C7.77479 16.0791 7.23242 14.2153 7.23242 12.3047C7.23242 6.65068 11.846 2.03711 17.5 2.03711C23.154 2.03711 27.7607 6.65068 27.7607 12.3047C27.7607 14.1587 27.2541 15.9748 26.3092 17.5559Z" fill="white"/>
<path d="M17.5 6.15234C14.1076 6.15234 11.3477 8.91229 11.3477 12.3047C11.3477 15.6754 14.0627 18.457 17.5 18.457C20.9797 18.457 23.6523 15.6384 23.6523 12.3047C23.6523 8.91229 20.8924 6.15234 17.5 6.15234ZM17.5 16.4199C15.2266 16.4199 13.3848 14.572 13.3848 12.3047C13.3848 10.0431 15.2384 8.18945 17.5 8.18945C19.7616 8.18945 21.6084 10.0431 21.6084 12.3047C21.6084 14.5389 19.8095 16.4199 17.5 16.4199Z" fill="white"/>
</svg>

<svg width="35" height="35" fill="none" xmlns="http://www.w3.org/2000/svg"><path d="M17.5 0C10.715 0 5.195 5.52 5.195 12.305c0 2.292.635 4.53 1.837 6.47l9.768 15.74c.187.302.516.485.87.485h.009c.358-.003.688-.192.872-.498l9.518-15.893a12.29 12.29 0 001.736-6.304C29.805 5.52 24.285 0 17.5 0zm8.81 17.556l-8.655 14.449-8.88-14.31c-1-1.616-1.543-3.48-1.543-5.39 0-5.654 4.614-10.268 10.268-10.268 5.654 0 10.26 4.614 10.26 10.268 0 1.854-.506 3.67-1.45 5.25z" fill="#fff"/><path d="M17.5 6.152a6.16 6.16 0 00-6.152 6.153 6.144 6.144 0 006.152 6.152c3.48 0 6.152-2.819 6.152-6.152A6.16 6.16 0 0017.5 6.152zm0 10.268a4.118 4.118 0 01-4.115-4.115A4.13 4.13 0 0117.5 8.189c2.262 0 4.108 1.854 4.108 4.116 0 2.234-1.799 4.115-4.108 4.115z" fill="#fff"/></svg>
